X: 2151
T: Aughacashel, The
R: reel
M: 4/4
K: Gmajor
DEGA BG~G2|AcBG AGEG|DEGA (3Bcd ed|gedB ABGE|
D2GA BG~G2|cGBG AGEG|(3Bcd ed Bdge|dBAB G4:|
gB~B2 GABd|egdB ~G2GB|ABGB AGEG|cABG ABde|
~g2ga bgef|gedB ABGE|DE GA (3Bcd ge|dBAB G4:|

